!!!OTL: 750. Des Herrn Einzug.
!!!COM: G. F. Haendel
!!!ODT: 1746
!!!ARE: Europa, Mitteleuropa, Deutschland
!!!SCT: B0750
!!!TXL: @@DE
!!!YEM: Copyright 1995, estate of Helmut Schaffrath.
**kern	**text
*ICvox	*
*Ivox	*
*clefG2	*
*M4/4	*
*met(c)	*
*k[b-e-a-]	*
*E-:	*
=1	=1
!LO:TX:a:t=	!
{2b-	Toch-
(4.g	-ter
8a-)	.
=2	=2
2b-	Ʒi-
2e-}	-on,
=3	=3
{(8fL	freu-
8g	.
8a-	.
8b-J	.
4a-)	.
4g	-e
=4	=4
2.f	dich,
4r}	.
=5	=5
{(<8gL	jauch-
8a-	.
8b-	.
8ccJ	.
4b-)	.
4b-	-ʒe
=6	=6
2ee-	laut,
2b-}	Je-
=7	=7
{(4a-	-ru-
4g	.
4.f)	.
8e-	-ſa-
=8	=8
2.e-	-lem!
4r}	.
=9	=9
{(8gL	Sieh,
8f	.
8g	.
8a-J	.
4g)	.
4g	dein
=10	=10
2f	Kö-
2e-}	-nig
=11	=11
{(4a-	kommt
4g	.
4f)	.
4e-	ʒu
=12	=12
2.d	dir,
4r}	.
=13	=13
{(8ccL	ja,
8bn	.
8cc	.
8ddJ	.
4cc)	.
4dd	er
=14	=14
2ee-	kommt,
2cc}	der
=15	=15
{(4dd	Frie-
8ccL	.
8b-J	.
4.an)	.
8b-	-de-
=16	=16
2.b-	-fürſt.
4r}	.
=17	=17
{2b-	Toch-
(4.g	-ter
8a-)	.
=18	=18
2b-	Ʒi-
2e-}	-on,
=19	=19
{(8fL	freu-
8g	.
8a-	.
8b-J	.
4a-)	.
4g	-e
=20	=20
2.f	dich,
4r}	.
=21	=21
{(<8gL	jauch-
8a-	.
8b-	.
8ccJ	.
4b-)	.
4b-	-ʒe
=22	=22
2ee-	laut,
2b-}	Je-
=23	=23
{(4a-	-ru-
4g	.
4.f)	.
8e-	-ſa-
=24	=24
2.e-	-lem!
4r}	.
==	==
!!!AGN: Preis - Lied, religioes
!!!GTL: Religioese Lieder
!!!ONB: ESAC (Essen Associative Code) Database: BOEHME
!!!AMT: simple quadruple
!!!AIN: vox
!!!EED: Helmut Schaffrath
!!!EEV: 1.0
!!!RDF**kern: < = below
!!@@COMMENT:"Der Verfasser des um 1820 bekannt gewordenen Palmarum-Textes ist nicht gekannt. Die Musik ist ein Chor aus Hֳ₪ndels Oratorium "Judas Makabaeus", komponirt 1746."
!!@@END:
!!!URL-scan: https://archive.org/details/BoehmeVtLieder1895/page/n603/mode/2up
!!!ENC: Anna Maria Matuszewska
!!!EEV: 2024/19/07
*-	*-
